packages/foundations/assets/icons/functional/images/devices/fax_machine_16.svg

<svg width="16" height="16" viewBox="0 0 16 16" fill="none" xmlns="http://www.w3.org/2000/svg">
<g clip-path="url(#clip0_185_715)">
<path fill-rule="evenodd" clip-rule="evenodd" d="M10.4744 1.6C10.6744 1.6 10.8744 1.7248 10.9744 1.8L12.5992 3.4496L12.6576 3.5288C12.7472 3.6664 12.7992 3.8336 12.7992 4V6.4H13.1248C13.9248 6.4 14.4 7.1 14.4 7.8752V12.1504C14.4 12.9 13.9 13.6 13.1248 13.6H5.77598C5.33598 14.0872 4.70638 14.4 3.99998 14.4C2.67678 14.4 1.59998 13.3232 1.59998 12V7.2C1.59998 5.8768 2.67678 4.8 3.99998 4.8V3.0248C3.99998 2.2 4.64958 1.6 5.44958 1.6H10.4744ZM3.99918 6.4C3.55758 6.4 3.19918 6.7584 3.19918 7.2V12C3.19918 12.4416 3.55758 12.8 3.99918 12.8C4.44078 12.8 4.79918 12.4416 4.79918 12V7.2C4.79918 6.7584 4.44078 6.4 3.99918 6.4ZM12.7992 8H6.39918V12H12.7992V8ZM10.7992 9.2C11.241 9.2 11.5992 9.55817 11.5992 10C11.5992 10.4418 11.241 10.8 10.7992 10.8C10.3573 10.8 9.99918 10.4418 9.99918 10C9.99918 9.55817 10.3573 9.2 10.7992 9.2ZM8.39918 9.2C8.841 9.2 9.19918 9.55817 9.19918 10C9.19918 10.4418 8.841 10.8 8.39918 10.8C7.95735 10.8 7.59918 10.4418 7.59918 10C7.59918 9.55817 7.95735 9.2 8.39918 9.2ZM9.59918 3.2H5.59918V5.424C5.89278 5.6888 6.11678 6.0208 6.25198 6.4H11.1992V4.8H10.3744C9.94958 4.8 9.59918 4.4 9.59918 4V3.2Z" fill="#1A1C1F"/>
</g>
<defs>
<clipPath id="clip0_185_715">
<rect width="16" height="16" fill="white"/>
</clipPath>
</defs>
</svg>

<svg xmlns="http://www.w3.org/2000/svg" width="16" height="16" fill="none"><g clip-path="url(#a)"><path fill="#1A1C1F" fill-rule="evenodd" d="M10.474 1.6c.2 0 .4.125.5.2L12.6 3.45l.059.079c.09.137.141.305.141.471v2.4h.326c.8 0 1.275.7 1.275 1.475v4.275c0 .75-.5 1.45-1.275 1.45H5.776c-.44.487-1.07.8-1.776.8A2.403 2.403 0 0 1 1.6 12V7.2c0-1.323 1.077-2.4 2.4-2.4V3.025C4 2.2 4.65 1.6 5.45 1.6zM4 6.4a.8.8 0 0 0-.8.8V12a.8.8 0 0 0 1.6 0V7.2a.8.8 0 0 0-.8-.8M12.8 8H6.4v4h6.4zm-2 1.2a.8.8 0 1 1 0 1.6.8.8 0 0 1 0-1.6m-2.4 0a.8.8 0 1 1 0 1.6.8.8 0 0 1 0-1.6m1.2-6h-4v2.224c.294.265.518.597.653.976h4.947V4.8h-.825C9.95 4.8 9.6 4.4 9.6 4z" clip-rule="evenodd"/></g><defs><clipPath id="a"><path fill="#fff" d="M0 0h16v16H0z"/></clipPath></defs></svg>
